src/assets/icons/cars/minivan_car.svg

<svg width="48" height="48" viewBox="0 0 48 48" fill="none" xmlns="http://www.w3.org/2000/svg">
<g id="Icons / Vertical Cars / Car bodytype minivan">
<path id="Page 1" fill-rule="evenodd" clip-rule="evenodd" d="M30.021 16.0488C33.318 16.0488 36 18.7962 36 22.1736V26.2927H35C34.448 26.2927 34 26.7516 34 27.3171C34 27.8825 34.448 28.3415 35 28.3415H36V30.3185C36 30.9229 35.52 31.4146 34.93 31.4146H33.449C33.21 29.9641 31.983 28.8537 30.5 28.8537C29.017 28.8537 27.79 29.9641 27.551 31.4146H15.449C15.21 29.9641 13.983 28.8537 12.5 28.8537C11.017 28.8537 9.79 29.9641 9.551 31.4146H9.07C8.48 31.4146 8 30.9229 8 30.3185V25.6791C8 25.2283 8.264 24.8288 8.673 24.6619L11.977 23.3076C12.035 23.284 12.086 23.2472 12.142 23.2195H18C18.552 23.2195 19 22.7606 19 22.1951C19 21.6297 18.552 21.1707 18 21.1707H14.414L14.486 21.097C17.664 17.8415 21.889 16.0488 26.383 16.0488H30.021ZM30.5 32.9512C29.949 32.9512 29.5 32.4913 29.5 31.9268C29.5 31.3624 29.949 30.9024 30.5 30.9024C31.051 30.9024 31.5 31.3624 31.5 31.9268C31.5 32.4913 31.051 32.9512 30.5 32.9512ZM12.5 32.9512C11.949 32.9512 11.5 32.4913 11.5 31.9268C11.5 31.3624 11.949 30.9024 12.5 30.9024C13.051 30.9024 13.5 31.3624 13.5 31.9268C13.5 32.4913 13.051 32.9512 12.5 32.9512ZM13.072 19.6485L11.593 21.1636C11.49 21.2691 11.37 21.35 11.234 21.4053L7.93 22.7596C6.757 23.24 6 24.3863 6 25.6791V30.3185C6 32.0528 7.377 33.4634 9.07 33.4634H9.917C10.438 34.3772 11.395 35 12.5 35C13.605 35 14.562 34.3772 15.083 33.4634H27.917C28.438 34.3772 29.395 35 30.5 35C31.605 35 32.562 34.3772 33.083 33.4634H34.93C36.623 33.4634 38 32.0528 38 30.3185V22.1736C38 17.6673 34.42 14 30.021 14H26.383C21.355 14 16.628 16.0058 13.072 19.6485Z" fill="#253238"/>
</g>
</svg>

<svg width="48" height="48" viewBox="0 0 48 48" fill="none" xmlns="http://www.w3.org/2000/svg"><path fill-rule="evenodd" clip-rule="evenodd" d="M30.021 16.049c3.297 0 5.979 2.747 5.979 6.125v4.119h-1c-.552 0-1 .459-1 1.024 0 .566.448 1.024 1 1.024h1v1.977c0 .605-.48 1.097-1.07 1.097h-1.481c-.239-1.45-1.466-2.561-2.949-2.561-1.483 0-2.71 1.11-2.949 2.56H15.449c-.239-1.45-1.466-2.56-2.949-2.56-1.483 0-2.71 1.11-2.949 2.56H9.07c-.59 0-1.07-.491-1.07-1.096V25.68c0-.45.264-.85.673-1.017l3.304-1.354c.058-.024.109-.06.165-.088H18c.552 0 1-.46 1-1.025s-.448-1.024-1-1.024h-3.586l.072-.074c3.178-3.256 7.403-5.048 11.897-5.048h3.638zM30.5 32.95c-.551 0-1-.46-1-1.024 0-.565.449-1.025 1-1.025.551 0 1 .46 1 1.025 0 .564-.449 1.024-1 1.024zm-18 0c-.551 0-1-.46-1-1.024 0-.565.449-1.025 1-1.025.551 0 1 .46 1 1.025 0 .564-.449 1.024-1 1.024zm.572-13.303l-1.479 1.516a1.05 1.05 0 01-.359.241L7.93 22.76C6.757 23.24 6 24.386 6 25.68v4.639c0 1.734 1.377 3.144 3.07 3.144h.847C10.438 34.377 11.395 35 12.5 35c1.105 0 2.062-.623 2.583-1.537h12.834C28.438 34.377 29.395 35 30.5 35c1.105 0 2.062-.623 2.583-1.537h1.847c1.693 0 3.07-1.41 3.07-3.145v-8.144C38 17.667 34.42 14 30.021 14h-3.638c-5.028 0-9.755 2.006-13.311 5.648z" fill="#253238"/></svg>
